-----BEGIN PGP SIGNATURE-----

wsFcBAABCgAGBYJqlsTrAAoJEEqAdFia28JuAtgQAJfTBbZcH5Dg9pramEEQ5yMp
qEX+0V+3USiJFQ6m0L9drzjrCiJ9GkJzlDTdVjAo3DXHDS9vZ9/+C37v21kf+xpm
F3gf5S+QYBtyqhvhYGGcwFRZRFqlqkYff7AzKzGFb+URaArwnan/QFA2nc9rTmTd
k100Duov5TIAj4cXR/8vsUDINEEURPUVxH+4caqSdAShHwIgquWzsSi9Zd34XL+r
AXrW1XsC4QQzawWdF4CBcpHuZuqvAuMd1u8S+yq37eVxfi0oi2oSvEEF3S7xnhLD
r12ucEumV2N07rfrX4gPhrutU5DxsdJh7P8ZI0i08cXHvfOcBbYBJRB1CBjbEeSN
h5067H3UfdMuCUCfGDKhV0BWY/8cC3m2h6rKnedMsb1m0cZ9GFY19PHzJmNCbN7v
cFLfn4laYRINsBkx1gR8nh3DLOTlT5f+13B6CTYvMpJNTpNlJKYDIvDxQIwppMhu
aCJKnwHo7iJvvb1VXOjdKsbx+eXzQybXqD44p3H0SNkLJQmgunjufwVtLmkDvAHa
B/87dwbe9n2oqmUVqnnbO3rN5BgKyMJ7U7K7iUHGHUCdwMdXcxTDxrCUa+DSBhJg
P5BaFVdbWunctlMHv0ZkaRK0IYoU606nRxOlv/VjoXsc2B64Jhurj7FJ+g9lKpc2
NTF7ifCTHF4c4Wp7HH5R
=FZw8
-----END PGP SIGNATURE-----
