-----BEGIN PGP SIGNATURE-----
Version: BCPG v@RELEASE_NAME@

iQIcBAABCgAGBQJqV7+PAAoJEEqAdFia28JuOIQQALWHE7I50sIyYnqzIk+C6Qgw
tZ4XQxblHOIUQwBT0gQyy8xPm12iqQebZpmhGFpoRd8rPXqU88+KapEIxBqEEj8T
zURdi6yuimy2a449e4LzJUo6HPc2HZN47obAE/rpliUB5AK3jGbpUYRGnTOaS8D2
zHSWE7LUtYsOzetUGcyqXmjGxd1CzNmD/IMkbvJlPN8SzeDnPzKcdUld6pgUTv3S
j5TxUK6f/7a/er6Lw/sZm/23VYnfYXhZTVg5BcWT6is7UYeT9zjD+W36ALP8bfy4
VO7e+fc/lS8j6hGfAj0oeXl1/5pCu+lb3gOEQqeKMZlN1ZOmZuMENUMvZdWGn4iw
gwECn7dYEBr0n0qeBldnA25FrQJfSxbzmvCVtNPyB5txZH2LOdL52I7HTohGsq52
oVaX2moShNmKI/JR5GgEswi8GSUkpB2znH6aASGnVj72kJK5NOMVZ6MN3yglHO6A
wqVwJwQ2dEtm9iAARZWL31oQSOtGK1kATt25cWb3YV5Hs1ervRqjBQGfIw221mrB
o+7cEXGt2pqhfhoV2YR5uCfQ0aqNYXkAe6j3vMMngWR0szM8kVfWcBlZBqsP+6o6
UuSA+l1+sy9SRLE3mZlnqkw5jEqJIJbwVftS+Dlbeaa10K2gbt3HrvbndWuRBi0u
gPdTN+y4TniLTpXq/AIh
=4rcp
-----END PGP SIGNATURE-----
