-----BEGIN PGP SIGNATURE-----
Version: BCPG v@RELEASE_NAME@

iQIcBAABCgAGBQJqV7+bAAoJEEqAdFia28JufMgP/2kjrIwL+OnjdsMfDEc6FDFS
kvMNH4gS0APBzWvI43pdg+QHFk7P8Pfq4RQ4fBbKdczovy0fTZwa6eXgzxbekrKN
WRjs+0KcVjYyz3XHg9T6feaMAZaJMHQSvm31meyI1mkjijv3fiX3vu2yNnZdSIu1
x1MVZv2iIyUIKsT6vKlRxtuGA+9wgffwvLPkXlVNUhKqjPGSZdgfj8xv/pwO+kue
y/Sps+t5k8aNDhcV5Xu3CNEdC+CnqIsxBOccsY0woZCiCR9XxS62JvCwUP5ADGyY
9/84Rg8g/z1rEY9bPxE4ijEunhaj87WXNGr01hEXfm7SzINzeCab6VuXNSTL5BID
XssPOMjQ+1FsC37wS8Pf9l4jpok58mD55B2FHprpuLcKpFDKErkRQLJfjhVizAtW
AGX7LQId7x5R7NLmLAWLEuiDminkwqBKzIMSqYOUILXLOa93wbfDt8m+1JtZtER1
rOZwSAIZURbZzZTJy0cejfXPmsg0KkpqDzWgPwrZaKNcKRrpJcwNhlOl2Q0x9cfA
Rkke8wN0+6tJBfxFqfeXtxAVLxocEMLjnCqj3GylR/PJh0f7HuYjXQ7Eg8ZB+hli
uKz/AGe6rhIWtMnlFVD1RfV1xN0RWEWLwKy3yGJQ2dH71HsMXOJVbDeQ8GTtavtn
6MQLta8tOH/889CS6ReM
=S+pe
-----END PGP SIGNATURE-----
